symbols/web/monetization_on/materialsymbolsrounded/monetization_on_wght300gradN25_48px.svg

<svg xmlns="http://www.w3.org/2000/svg" height="48" width="48"><path d="M23.95 37.8q.45 0 .75-.325t.3-.775v-1.4q2.7-.2 4.5-1.75 1.8-1.55 1.8-4.25 0-2.45-1.375-3.875Q28.55 24 25 22.8q-3.25-1.1-4.3-2.1-1.05-1-1.05-2.65 0-1.6 1.225-2.6t3.225-1q1.3 0 2.275.5.975.5 1.725 1.4.2.3.6.425.4.125.75-.075.4-.2.525-.6.125-.4-.125-.75Q29 14.2 27.8 13.5q-1.2-.7-2.7-.8v-1.4q0-.45-.3-.75t-.75-.3q-.45 0-.775.3t-.325.75v1.4q-2.55.35-3.975 1.825Q17.55 16 17.55 18.05q0 2.3 1.275 3.65t4.725 2.65q3.45 1.3 4.575 2.3 1.125 1 1.125 2.65 0 1.9-1.5 3.025t-3.4 1.125q-1.7 0-3.1-.85-1.4-.85-2.2-2.35-.2-.35-.525-.475t-.625-.025q-.55.2-.7.6-.15.4.1.8 1 1.7 2.375 2.625T22.85 35.2v1.55q0 .45.325.75t.775.3Zm.05 5.05q-3.95 0-7.4-1.45t-6-4q-2.55-2.55-4-6-1.45-3.45-1.45-7.4t1.45-7.4q1.45-3.45 4-6t6-4q3.45-1.45 7.4-1.45t7.4 1.45q3.45 1.45 6 4t4 6q1.45 3.45 1.45 7.4t-1.45 7.4q-1.45 3.45-4 6t-6 4q-3.45 1.45-7.4 1.45ZM24 24Zm0 16.65q7.05 0 11.85-4.8T40.65 24q0-7.05-4.8-11.85T24 7.35q-7.05 0-11.85 4.8T7.35 24q0 7.05 4.8 11.85T24 40.65Z"/></svg>

<svg xmlns="http://www.w3.org/2000/svg" height="48" width="48"><path d="M23.95 37.8Q24.4 37.8 24.7 37.475Q25 37.15 25 36.7V35.3Q27.7 35.1 29.5 33.55Q31.3 32 31.3 29.3Q31.3 26.85 29.925 25.425Q28.55 24 25 22.8Q21.75 21.7 20.7 20.7Q19.65 19.7 19.65 18.05Q19.65 16.45 20.875 15.45Q22.1 14.45 24.1 14.45Q25.4 14.45 26.375 14.95Q27.35 15.45 28.1 16.35Q28.3 16.65 28.7 16.775Q29.1 16.9 29.45 16.7Q29.85 16.5 29.975 16.1Q30.1 15.7 29.85 15.35Q29 14.2 27.8 13.5Q26.6 12.8 25.1 12.7V11.3Q25.1 10.85 24.8 10.55Q24.5 10.25 24.05 10.25Q23.6 10.25 23.275 10.55Q22.95 10.85 22.95 11.3V12.7Q20.4 13.05 18.975 14.525Q17.55 16 17.55 18.05Q17.55 20.35 18.825 21.7Q20.1 23.05 23.55 24.35Q27 25.65 28.125 26.65Q29.25 27.65 29.25 29.3Q29.25 31.2 27.75 32.325Q26.25 33.45 24.35 33.45Q22.65 33.45 21.25 32.6Q19.85 31.75 19.05 30.25Q18.85 29.9 18.525 29.775Q18.2 29.65 17.9 29.75Q17.35 29.95 17.2 30.35Q17.05 30.75 17.3 31.15Q18.3 32.85 19.675 33.775Q21.05 34.7 22.85 35.2V36.75Q22.85 37.2 23.175 37.5Q23.5 37.8 23.95 37.8ZM24 42.85Q20.05 42.85 16.6 41.4Q13.15 39.95 10.6 37.4Q8.05 34.85 6.6 31.4Q5.15 27.95 5.15 24Q5.15 20.05 6.6 16.6Q8.05 13.15 10.6 10.6Q13.15 8.05 16.6 6.6Q20.05 5.15 24 5.15Q27.95 5.15 31.4 6.6Q34.85 8.05 37.4 10.6Q39.95 13.15 41.4 16.6Q42.85 20.05 42.85 24Q42.85 27.95 41.4 31.4Q39.95 34.85 37.4 37.4Q34.85 39.95 31.4 41.4Q27.95 42.85 24 42.85ZM24 24Q24 24 24 24Q24 24 24 24Q24 24 24 24Q24 24 24 24Q24 24 24 24Q24 24 24 24Q24 24 24 24Q24 24 24 24ZM24 40.65Q31.05 40.65 35.85 35.85Q40.65 31.05 40.65 24Q40.65 16.95 35.85 12.15Q31.05 7.35 24 7.35Q16.95 7.35 12.15 12.15Q7.35 16.95 7.35 24Q7.35 31.05 12.15 35.85Q16.95 40.65 24 40.65Z"/></svg>
